flaticon/productivity-and-development/square.svg

<svg xmlns="http://www.w3.org/2000/svg" width="32" height="32" viewBox="0 0 24 24">
    <path d="M 23.894531 0.203125 C 23.796875 0.0742188 23.648438 0 23.488281 0 C 23.488281 0 23.488281 0 23.484375 0 L 1.988281 0.207031 C 1.722656 0.207031 1.5 0.421875 1.484375 0.695312 L 0 23.441406 C -0.0078125 23.59375 0.046875 23.746094 0.15625 23.855469 C 0.253906 23.949219 0.378906 24 0.511719 24 C 0.527344 24 0.546875 24 0.566406 23.996094 L 18.019531 22.023438 C 18.226562 22 18.398438 21.847656 18.453125 21.640625 L 23.980469 0.664062 C 24.023438 0.503906 23.992188 0.335938 23.894531 0.203125 Z M 8.785156 10.890625 L 10.105469 1.179688 L 16.179688 1.121094 L 12.035156 21.644531 L 7.25 22.183594 Z M 2.46875 1.253906 L 9.074219 1.1875 L 6.203125 22.304688 L 1.0625 22.882812 Z M 17.558594 21.019531 L 13.105469 21.523438 L 17.226562 1.109375 L 22.820312 1.058594 Z M 17.558594 21.019531"/>
</svg>

<svg xmlns="http://www.w3.org/2000/svg" width="32" height="32" viewBox="0 0 24 24">
    <path d="M23.895.203A.507.507 0 0 0 23.488 0h-.004L1.988.207a.513.513 0 0 0-.504.488L0 23.441a.546.546 0 0 0 .156.414.51.51 0 0 0 .356.145c.015 0 .035 0 .054-.004l17.454-1.973a.512.512 0 0 0 .433-.382L23.98.664a.538.538 0 0 0-.085-.46zM8.785 10.891l1.32-9.711 6.075-.059-4.145 20.524-4.785.539zM2.47 1.254l6.605-.067-2.87 21.118-5.141.578zm15.09 19.766l-4.454.503L17.227 1.11l5.593-.05zm0 0"/>
</svg>
